X:1
T:Watertown
T:F Major                    Merit Woodruff, 1798
T:Transcribed from Social Harmony, 1798.
T:Isaac Watts, 1719 (Psalm 148, Part 3)               66. 86. (S. M.)
%%score [ 1 2 3 4 ]
L:1/8
Q:1/4=90
M:3/4
K:F
V:1 treble nm="Tr." snm="Tr."
V:2 treble nm="C." snm="C."
V:3 treble-8 nm="T." snm="T."
V:4 bass nm="B." snm="B."
V:1
"_1. Let  earth  and  ocean  know They owe their  Ma     –    ker  praise; Praise him,  ye      wa  –  tery     worlds          be –   low,  And   mon  –  sters   of      the    seas.  From" c2 | %1
 (c2 f2) ec | d4 c2 | c4 A2 | d4 cB | (A2 G2) F2 | c4 c2 | (c2 f2) ec | (A2 c2) f2 | (d2 c2) de | %10
 f4 f2 | (c2 d2) BA | G4 F2 | c4 A2 | %14
"_1. moun   –  tains    near          the     sky   Let    his      high    praise  re – sound;  From hum – ble  shrubs  and   ce     –    dars  high,  And vales         and     fields  a  –  round." (A>B c2) cf | %15
 (e>d c2) AF | c4 c2 | (c2 f2) ga | (g2 c2) cd | c4 c2 | f4 ga | d4 f2 | (B2 c2) c2 | c4 F2 | %24
 (c2 B2) Af | (e>d) c4 | [Ac]6 |] %27
V:2
"_2.  By  all  the  earth–born race  His ho  –  nors     be          expressed;  But   saints,  that   know   his     hea       –     venly  grace Should learn  to    praise  him  best. Mon–" F2 | %1
 (F2 A2) AF | B4 G2 | A4 A2 | A4 F2 | G4 AF | G4 F2 | F4 EF | (G2 A2) A2 | (B2 A2) G2 | A4 A2 | %11
 F4 F2 | E4 F2 | G4 F2 | %14
"_2.  –archs      of       wide        command,  Praise  ye     th'e  –  ter   –  nal  King;  Jud – ges,     a   –    dore   that     sove – reign  hand  Whence  all      your    ho  – nors  spring." A4 cA | %15
 A4 cA | G4 F2 | (E2 F2) G2 | c4 AG | F4 F2 | A4 BA | (G2 B2) A2 | (G2 A2) G2 | A4 F2 | %24
 (A2 G2) F2 | C2 E4 | F6 |] %27
V:3
"_3. U –  ni  – ted zeal be shown  His won – drous  fame       to      raise: God   is      the      Lord;   his    name             a    –   lone  De  – serves  our    end  –  less  praise. Let" F2 | %1
 (A2 c2) Ac | f4 e2 | f4 c2 | (d2 A2) AB | (c2 B2) A2 | G4 AF | (A2 c2) Ac | (c2 f2) cf | f4 g2 | %10
 c4 FA | (c2 f2) dc | (B2 G2) GF | G4 c2 | %14
"_3. na     –     ture      join           with   art,  And   all     pro – nounce  him  blest;  But  saints,  that   dwell   so        near    his heart,  Should  sing          his      prai  –  ses   best." (fg f2) fc | %15
 (A2 F2) Ac | c4 af | (g2 c2) cd | (c2 G2) AB | c4 AF | (A2 c2) df | (f2 g2) c2 | (d>e f2) e2 | %23
 f4 fd | (c>A d2) cB | A2 G4 | F6 |] %27
V:4
 F,2 | F,4 A,2 | B,4 C2 | F,4 F,2 | D,4 F,2 | (E,F, G,2) F,2 | C,4 F,2 | F,4 A,2 | (C2 A,2) F,2 | %9
 B,DCA, G,2 | F,4 D,F, | (A,2 D,2) D,F, | (G,2 C,2) C,D, | C,4 C,F, | F,4 F,A, | %15
"___________________________________________________\nEdited by B. C. Johnston, 2018\n   1. Measure 22, Counter: second note changed from A to B." A,4 F,A, | %16
 C4 A,B, | C4 C2 | C4 C2 | F,4 F,2 | (F,2 A,2) G,F, | (B,2 G,2) A,F, | (G,2 F,2) C,2 | F,4 DB, | %24
 (A,F, G,2) A,B, | C2 C,4 | F,6 |] %27

